svg/fluentui-system-icons/ic_fluent_dismiss_circle_24_filled.svg

<svg width="24" height="24" viewBox="0 0 24 24" fill="none" xmlns="http://www.w3.org/2000/svg">
<path d="M12 2C17.5228 2 22 6.47715 22 12C22 17.5228 17.5228 22 12 22C6.47715 22 2 17.5228 2 12C2 6.47715 6.47715 2 12 2ZM15.5303 8.46967L15.4462 8.39705C15.1852 8.2034 14.827 8.20101 14.5636 8.38988L14.4697 8.46967L12 10.939L9.53033 8.46967L9.44621 8.39705C9.18522 8.2034 8.82701 8.20101 8.56362 8.38988L8.46967 8.46967L8.39705 8.55379C8.2034 8.81478 8.20101 9.17299 8.38988 9.43638L8.46967 9.53033L10.939 12L8.46967 14.4697L8.39705 14.5538C8.2034 14.8148 8.20101 15.173 8.38988 15.4364L8.46967 15.5303L8.55379 15.6029C8.81478 15.7966 9.17299 15.799 9.43638 15.6101L9.53033 15.5303L12 13.061L14.4697 15.5303L14.5538 15.6029C14.8148 15.7966 15.173 15.799 15.4364 15.6101L15.5303 15.5303L15.6029 15.4462C15.7966 15.1852 15.799 14.827 15.6101 14.5636L15.5303 14.4697L13.061 12L15.5303 9.53033L15.6029 9.44621C15.7966 9.18522 15.799 8.82701 15.6101 8.56362L15.5303 8.46967L15.4462 8.39705L15.5303 8.46967Z" fill="#212121"/>
</svg>

<svg xmlns="http://www.w3.org/2000/svg" width="24" height="24"><path d="M12 2c5.523 0 10 4.477 10 10s-4.477 10-10 10S2 17.523 2 12 6.477 2 12 2Zm3.53 6.47-.084-.073a.75.75 0 0 0-.882-.007l-.094.08L12 10.939l-2.47-2.47-.084-.072a.75.75 0 0 0-.882-.007l-.094.08-.073.084a.75.75 0 0 0-.007.882l.08.094L10.939 12l-2.47 2.47-.072.084a.75.75 0 0 0-.007.882l.08.094.084.073a.75.75 0 0 0 .882.007l.094-.08L12 13.061l2.47 2.47.084.072a.75.75 0 0 0 .882.007l.094-.08.073-.084a.75.75 0 0 0 .007-.882l-.08-.094L13.061 12l2.47-2.47.072-.084a.75.75 0 0 0 .007-.882l-.08-.094-.084-.073.084.073Z"/></svg>
